src/assets/why_chose_us_4.svg

<svg width="38" height="45" viewBox="0 0 38 45" fill="none" xmlns="http://www.w3.org/2000/svg">
<path d="M3.51562 23.9004H16.1719C16.5607 23.9004 16.875 23.5861 16.875 23.1973V20.3848C16.875 19.9959 16.5607 19.6816 16.1719 19.6816H3.51562C3.1268 19.6816 2.8125 19.9959 2.8125 20.3848V23.1973C2.8125 23.5861 3.1268 23.9004 3.51562 23.9004ZM4.21875 21.0879H15.4688V22.4941H4.21875V21.0879Z" fill="#FF5500"/>
<path d="M14.7656 25.3066C13.6027 25.3066 12.6562 26.253 12.6562 27.416C12.6562 28.579 13.6027 29.5254 14.7656 29.5254C15.9286 29.5254 16.875 28.579 16.875 27.416C16.875 26.253 15.9286 25.3066 14.7656 25.3066ZM14.7656 28.1191C14.3775 28.1191 14.0625 27.8041 14.0625 27.416C14.0625 27.0279 14.3775 26.7129 14.7656 26.7129C15.1537 26.7129 15.4688 27.0279 15.4688 27.416C15.4688 27.8041 15.1537 28.1191 14.7656 28.1191Z" fill="#FF5500"/>
<path d="M9.84375 25.3066C8.68078 25.3066 7.73438 26.253 7.73438 27.416C7.73438 28.579 8.68078 29.5254 9.84375 29.5254C11.0067 29.5254 11.9531 28.579 11.9531 27.416C11.9531 26.253 11.0067 25.3066 9.84375 25.3066ZM9.84375 28.1191C9.45563 28.1191 9.14062 27.8041 9.14062 27.416C9.14062 27.0279 9.45563 26.7129 9.84375 26.7129C10.2319 26.7129 10.5469 27.0279 10.5469 27.416C10.5469 27.8041 10.2319 28.1191 9.84375 28.1191Z" fill="#FF5500"/>
<path d="M4.92188 29.5254C6.08484 29.5254 7.03125 28.579 7.03125 27.416C7.03125 26.253 6.08484 25.3066 4.92188 25.3066C3.75891 25.3066 2.8125 26.253 2.8125 27.416C2.8125 28.579 3.75891 29.5254 4.92188 29.5254ZM4.92188 26.7129C5.31 26.7129 5.625 27.0279 5.625 27.416C5.625 27.8041 5.31 28.1191 4.92188 28.1191C4.53375 28.1191 4.21875 27.8041 4.21875 27.416C4.21875 27.0279 4.53375 26.7129 4.92188 26.7129Z" fill="#FF5500"/>
<path d="M14.7656 30.2285C13.6027 30.2285 12.6562 31.1749 12.6562 32.3379C12.6562 33.5009 13.6027 34.4473 14.7656 34.4473C15.9286 34.4473 16.875 33.5009 16.875 32.3379C16.875 31.1749 15.9286 30.2285 14.7656 30.2285ZM14.7656 33.041C14.3775 33.041 14.0625 32.726 14.0625 32.3379C14.0625 31.9498 14.3775 31.6348 14.7656 31.6348C15.1537 31.6348 15.4688 31.9498 15.4688 32.3379C15.4688 32.726 15.1537 33.041 14.7656 33.041Z" fill="#FF5500"/>
<path d="M9.84375 30.2285C8.68078 30.2285 7.73438 31.1749 7.73438 32.3379C7.73438 33.5009 8.68078 34.4473 9.84375 34.4473C11.0067 34.4473 11.9531 33.5009 11.9531 32.3379C11.9531 31.1749 11.0067 30.2285 9.84375 30.2285ZM9.84375 33.041C9.45563 33.041 9.14062 32.726 9.14062 32.3379C9.14062 31.9498 9.45563 31.6348 9.84375 31.6348C10.2319 31.6348 10.5469 31.9498 10.5469 32.3379C10.5469 32.726 10.2319 33.041 9.84375 33.041Z" fill="#FF5500"/>
<path d="M4.92188 34.4473C6.08484 34.4473 7.03125 33.5009 7.03125 32.3379C7.03125 31.1749 6.08484 30.2285 4.92188 30.2285C3.75891 30.2285 2.8125 31.1749 2.8125 32.3379C2.8125 33.5009 3.75891 34.4473 4.92188 34.4473ZM4.92188 31.6348C5.31 31.6348 5.625 31.9498 5.625 32.3379C5.625 32.726 5.31 33.041 4.92188 33.041C4.53375 33.041 4.21875 32.726 4.21875 32.3379C4.21875 31.9498 4.53375 31.6348 4.92188 31.6348Z" fill="#FF5500"/>
<path d="M14.7656 35.1504C13.6027 35.1504 12.6562 36.0968 12.6562 37.2598C12.6562 38.4227 13.6027 39.3691 14.7656 39.3691C15.9286 39.3691 16.875 38.4227 16.875 37.2598C16.875 36.0968 15.9286 35.1504 14.7656 35.1504ZM14.7656 37.9629C14.3775 37.9629 14.0625 37.6479 14.0625 37.2598C14.0625 36.8716 14.3775 36.5566 14.7656 36.5566C15.1537 36.5566 15.4688 36.8716 15.4688 37.2598C15.4688 37.6479 15.1537 37.9629 14.7656 37.9629Z" fill="#FF5500"/>
<path d="M9.84375 35.1504C8.68078 35.1504 7.73438 36.0968 7.73438 37.2598C7.73438 38.4227 8.68078 39.3691 9.84375 39.3691C11.0067 39.3691 11.9531 38.4227 11.9531 37.2598C11.9531 36.0968 11.0067 35.1504 9.84375 35.1504ZM9.84375 37.9629C9.45563 37.9629 9.14062 37.6479 9.14062 37.2598C9.14062 36.8716 9.45563 36.5566 9.84375 36.5566C10.2319 36.5566 10.5469 36.8716 10.5469 37.2598C10.5469 37.6479 10.2319 37.9629 9.84375 37.9629Z" fill="#FF5500"/>
<path d="M4.92188 39.3691C6.08484 39.3691 7.03125 38.4227 7.03125 37.2598C7.03125 36.0968 6.08484 35.1504 4.92188 35.1504C3.75891 35.1504 2.8125 36.0968 2.8125 37.2598C2.8125 38.4227 3.75891 39.3691 4.92188 39.3691ZM4.92188 36.5566C5.31 36.5566 5.625 36.8716 5.625 37.2598C5.625 37.6479 5.31 37.9629 4.92188 37.9629C4.53375 37.9629 4.21875 37.6479 4.21875 37.2598C4.21875 36.8716 4.53375 36.5566 4.92188 36.5566Z" fill="#FF5500"/>
<path d="M26.0039 10.5561H25.9512C25.7304 8.82715 24.7045 7.2852 23.1914 6.40418V6.10816C23.1914 6.07231 23.1766 6.04066 23.171 6.00621C23.1633 5.95488 23.1591 5.90356 23.1408 5.85504C23.1239 5.81074 23.0958 5.77488 23.0698 5.73481C23.0466 5.69824 23.0276 5.66098 22.9973 5.62934C22.9587 5.58785 22.9116 5.55973 22.8645 5.52879C22.8384 5.51191 22.8195 5.4866 22.7906 5.47324C22.7836 5.46973 22.7759 5.46762 22.7695 5.4641C22.7639 5.46199 22.759 5.45988 22.7534 5.45777C21.2627 4.75957 19.5035 4.75887 18.0037 5.45566C18.0002 5.45707 17.9967 5.45777 17.9932 5.45988C17.9855 5.4634 17.9784 5.46551 17.9707 5.46902C17.9384 5.48379 17.9173 5.51191 17.8884 5.5309C17.8441 5.56043 17.7991 5.58645 17.7626 5.62441C17.7323 5.65746 17.7134 5.69613 17.6895 5.7327C17.6641 5.77207 17.636 5.80723 17.6184 5.85152C17.6002 5.89934 17.5966 5.95066 17.5882 6.00199C17.5826 6.03715 17.5678 6.06879 17.5678 6.10465V6.40137C16.0519 7.28238 15.0239 8.82504 14.8024 10.5554H14.7539C14.3651 10.5554 14.0508 10.8697 14.0508 11.2586V13.3679C14.0508 13.7568 14.3651 14.0711 14.7539 14.0711H26.0039C26.3927 14.0711 26.707 13.7568 26.707 13.3679V11.2586C26.707 10.8704 26.3927 10.5561 26.0039 10.5561ZM17.5678 8.11488V8.44535C17.5678 8.83418 17.8821 9.14848 18.2709 9.14848C18.6598 9.14848 18.9741 8.83418 18.9741 8.44535V6.57785C19.8818 6.25863 20.8816 6.26004 21.7852 6.57926V8.44535C21.7852 8.83418 22.0995 9.14848 22.4883 9.14848C22.8771 9.14848 23.1914 8.83418 23.1914 8.44535V8.1191C23.8952 8.75402 24.3684 9.61535 24.5295 10.5561H16.2241C16.3866 9.61324 16.8612 8.74981 17.5678 8.11488ZM25.3008 12.6655H15.457V11.9624H25.3008V12.6655Z" fill="#FF5500"/>
<path d="M30.2305 19.6914H32.3398C32.7287 19.6914 33.043 19.3771 33.043 18.9883C33.043 18.5995 32.7287 18.2852 32.3398 18.2852H30.2305C29.8416 18.2852 29.5273 18.5995 29.5273 18.9883C29.5273 19.3771 29.8416 19.6914 30.2305 19.6914Z" fill="#FF5500"/>
<path d="M32.3366 21.8008H29.5234C29.1346 21.8008 28.8203 22.1151 28.8203 22.5039C28.8203 22.8927 29.1346 23.207 29.5234 23.207H32.3366C32.7255 23.207 33.0398 22.8927 33.0398 22.5039C33.0398 22.1151 32.7255 21.8008 32.3366 21.8008Z" fill="#FF5500"/>
<path d="M32.3398 25.3164H30.2305C29.8416 25.3164 29.5273 25.6307 29.5273 26.0195C29.5273 26.4084 29.8416 26.7227 30.2305 26.7227H32.3398C32.7287 26.7227 33.043 26.4084 33.043 26.0195C33.043 25.6307 32.7287 25.3164 32.3398 25.3164Z" fill="#FF5500"/>
<path d="M32.3391 28.832H30.9336C30.5448 28.832 30.2305 29.1463 30.2305 29.5352C30.2305 29.924 30.5448 30.2383 30.9336 30.2383H32.3391C32.728 30.2383 33.0423 29.924 33.0423 29.5352C33.0423 29.1463 32.728 28.832 32.3391 28.832Z" fill="#FF5500"/>
<path d="M32.3398 32.3477H30.2305C29.8416 32.3477 29.5273 32.662 29.5273 33.0508C29.5273 33.4396 29.8416 33.7539 30.2305 33.7539H32.3398C32.7287 33.7539 33.043 33.4396 33.043 33.0508C33.043 32.662 32.7287 32.3477 32.3398 32.3477Z" fill="#FF5500"/>
<path d="M32.3366 35.8633H29.5234C29.1346 35.8633 28.8203 36.1776 28.8203 36.5664C28.8203 36.9552 29.1346 37.2695 29.5234 37.2695H32.3366C32.7255 37.2695 33.0398 36.9552 33.0398 36.5664C33.0398 36.1776 32.7255 35.8633 32.3366 35.8633Z" fill="#FF5500"/>
<path d="M37.9631 5.62664C37.9624 5.53734 37.9448 5.44875 37.9104 5.36508C37.8745 5.27859 37.8232 5.20055 37.7578 5.13586L32.8381 0.212578C32.7734 0.147188 32.6953 0.0958594 32.6088 0.06C32.523 0.0241406 32.4316 0.00585938 32.3402 0.00585938H9.84375C9.45492 0.00585938 9.14062 0.320156 9.14062 0.708984V16.8696H2.10938C0.946407 16.8696 0 17.816 0 18.979V21.7915V40.0727V42.8852C0 44.0482 0.946407 44.9946 2.10938 44.9946H17.5781C18.7411 44.9946 19.6875 44.0482 19.6875 42.8852V42.1793H37.2614C37.6502 42.1793 37.9645 41.865 37.9645 41.4762V5.63508C37.9645 5.63508 37.9645 5.63508 37.9645 5.63437C37.9645 5.63156 37.9631 5.62875 37.9631 5.62664ZM33.0434 2.40703L35.5648 4.93055H33.0434V2.40703ZM1.40625 18.979C1.40625 18.5909 1.72125 18.2759 2.10938 18.2759H17.5781C17.9662 18.2759 18.2812 18.5909 18.2812 18.979V21.7915V40.0727C18.2812 40.4609 17.9662 40.7759 17.5781 40.7759H2.10938C1.72125 40.7759 1.40625 40.4609 1.40625 40.0727V21.7915V18.979ZM17.5781 43.5884H2.10938C1.72125 43.5884 1.40625 43.2734 1.40625 42.8852V42.052C1.62703 42.1308 1.86117 42.1821 2.10938 42.1821H17.5781C17.8263 42.1821 18.0605 42.1315 18.2812 42.052V42.8852C18.2812 43.2734 17.9662 43.5884 17.5781 43.5884ZM19.6875 40.0727V37.2701H26.01C26.3988 37.2701 26.7131 36.9558 26.7131 36.567C26.7131 36.1781 26.3988 35.8638 26.01 35.8638H19.6875V33.7545H26.01C26.3988 33.7545 26.7131 33.4402 26.7131 33.0513C26.7131 32.6625 26.3988 32.3482 26.01 32.3482H19.6875V30.2388H26.01C26.3988 30.2388 26.7131 29.9245 26.7131 29.5357C26.7131 29.1469 26.3988 28.8326 26.01 28.8326H19.6875V26.7232H26.01C26.3988 26.7232 26.7131 26.4089 26.7131 26.0201C26.7131 25.6313 26.3988 25.317 26.01 25.317H19.6875V23.2076H26.01C26.3988 23.2076 26.7131 22.8933 26.7131 22.5045C26.7131 22.1156 26.3988 21.8013 26.01 21.8013H19.6875V21.7915V19.692H26.01C26.3988 19.692 26.7131 19.3777 26.7131 18.9888C26.7131 18.6 26.3988 18.2857 26.01 18.2857H19.5609C19.272 17.4638 18.4964 16.8696 17.5781 16.8696H10.5469V1.41211H31.6371V5.63367C31.6371 6.0225 31.9514 6.3368 32.3402 6.3368H36.5583V40.7738H19.6875V40.0727Z" fill="#FF5500"/>
</svg>

<svg xmlns="http://www.w3.org/2000/svg" width="38" height="45" fill="none" xmlns:v="https://vecta.io/nano"><g fill="#f50"><path d="M3.516 23.9h12.656c.389 0 .703-.314.703-.703v-2.812c0-.389-.314-.703-.703-.703H3.516c-.389 0-.703.314-.703.703v2.813c0 .389.314.703.703.703zm.703-2.812h11.25v1.406H4.219v-1.406z"/><use href="#B"/><use href="#C"/><use href="#D"/><path d="M14.766 30.229a2.11 2.11 0 0 0-2.109 2.109c0 1.163.947 2.109 2.109 2.109s2.109-.946 2.109-2.109a2.11 2.11 0 0 0-2.109-2.109zm0 2.812c-.388 0-.703-.315-.703-.703s.315-.703.703-.703.703.315.703.703-.315.703-.703.703zm-4.922-2.812a2.11 2.11 0 0 0-2.109 2.109 2.11 2.11 0 0 0 2.109 2.109 2.11 2.11 0 0 0 2.109-2.109 2.11 2.11 0 0 0-2.109-2.109zm0 2.812c-.388 0-.703-.315-.703-.703s.315-.703.703-.703.703.315.703.703-.315.703-.703.703z"/><use href="#D" y="4.922"/><use href="#B" y="9.843"/><use href="#C" y="9.843"/><use href="#D" y="9.844"/><path d="M26.004 10.556h-.053a5.65 5.65 0 0 0-2.76-4.152v-.296c0-.036-.015-.067-.02-.102-.008-.051-.012-.103-.03-.151s-.045-.08-.071-.12-.042-.074-.073-.105c-.039-.041-.086-.07-.133-.101-.026-.017-.045-.042-.074-.056-.007-.004-.015-.006-.021-.009-1.507-.705-3.266-.705-4.766-.008l-.033.013c-.032.015-.053.043-.082.062-.044.03-.089.056-.126.094-.03.033-.049.072-.073.108s-.053.075-.071.119-.022.099-.03.15c-.006.035-.02.067-.02.103v.297a5.65 5.65 0 0 0-2.765 4.154h-.049a.7.7 0 0 0-.703.703v2.109a.7.7 0 0 0 .703.703h11.25a.7.7 0 0 0 .703-.703v-2.109a.7.7 0 0 0-.703-.702zm-8.436-2.441v.33a.7.7 0 1 0 1.406 0V6.578a4.25 4.25 0 0 1 2.811.001v1.866a.7.7 0 1 0 1.406 0v-.326a4.25 4.25 0 0 1 1.338 2.437h-8.305c.163-.943.637-1.806 1.344-2.441zm7.733 4.551h-9.844v-.703h9.844v.703zm4.93 7.025h2.109a.7.7 0 1 0 0-1.406h-2.109a.7.7 0 1 0 0 1.406z"/><use href="#E"/><use href="#F"/><path d="M32.339 28.832h-1.406c-.389 0-.703.314-.703.703s.314.703.703.703h1.406c.389 0 .703-.314.703-.703s-.314-.703-.703-.703z"/><use href="#F" y="7.032"/><use href="#E" y="14.062"/><path d="M37.963 5.627a.7.7 0 0 0-.053-.262c-.036-.086-.087-.165-.153-.229L32.838.213c-.065-.065-.143-.117-.229-.153s-.177-.054-.269-.054H9.844c-.389 0-.703.314-.703.703V16.87H2.109C.946 16.87 0 17.816 0 18.979v2.813 18.281 2.813c0 1.163.946 2.109 2.109 2.109h15.469c1.163 0 2.109-.946 2.109-2.109v-.706h17.574c.389 0 .703-.314.703-.703V5.635zm-4.92-3.22l2.521 2.524h-2.521V2.407zM1.406 18.979c0-.388.315-.703.703-.703h15.469c.388 0 .703.315.703.703v2.813 18.281c0 .388-.315.703-.703.703H2.109c-.388 0-.703-.315-.703-.703V21.792v-2.812zm16.172 24.609H2.109c-.388 0-.703-.315-.703-.703v-.833a2.08 2.08 0 0 0 .703.13h15.469c.248 0 .482-.051.703-.13v.833c0 .388-.315.703-.703.703zm2.109-3.516V37.27h6.323c.389 0 .703-.314.703-.703s-.314-.703-.703-.703h-6.323v-2.109h6.323c.389 0 .703-.314.703-.703s-.314-.703-.703-.703h-6.323v-2.109h6.323c.389 0 .703-.314.703-.703s-.314-.703-.703-.703h-6.323v-2.109h6.323c.389 0 .703-.314.703-.703s-.314-.703-.703-.703h-6.323v-2.109h6.323c.389 0 .703-.314.703-.703s-.314-.703-.703-.703h-6.323v-.01-2.099h6.323c.389 0 .703-.314.703-.703s-.314-.703-.703-.703h-6.449c-.289-.822-1.064-1.416-1.983-1.416h-7.031V1.412h21.09v4.222c0 .389.314.703.703.703h4.218v34.437H19.688v-.701z"/></g><defs ><path id="B" d="M14.766 25.307c-1.163 0-2.109.946-2.109 2.109s.947 2.109 2.109 2.109 2.109-.946 2.109-2.109-.946-2.109-2.109-2.109zm0 2.813c-.388 0-.703-.315-.703-.703s.315-.703.703-.703.703.315.703.703-.315.703-.703.703z"/><path id="C" d="M9.844 25.307c-1.163 0-2.109.946-2.109 2.109s.946 2.109 2.109 2.109 2.109-.946 2.109-2.109-.946-2.109-2.109-2.109zm0 2.813c-.388 0-.703-.315-.703-.703s.315-.703.703-.703.703.315.703.703-.315.703-.703.703z"/><path id="D" d="M4.922 29.525c1.163 0 2.109-.946 2.109-2.109s-.946-2.109-2.109-2.109-2.109.946-2.109 2.109.946 2.109 2.109 2.109zm0-2.812c.388 0 .703.315.703.703s-.315.703-.703.703-.703-.315-.703-.703.315-.703.703-.703z"/><path id="E" d="M32.337 21.801h-2.813c-.389 0-.703.314-.703.703s.314.703.703.703h2.813c.389 0 .703-.314.703-.703s-.314-.703-.703-.703z"/><path id="F" d="M32.34 25.316h-2.109c-.389 0-.703.314-.703.703s.314.703.703.703h2.109c.389 0 .703-.314.703-.703s-.314-.703-.703-.703z"/></defs></svg>
